wp-content/themes/sd-accesslasers/public/images/application/icons/application-7.svg

<?xml version="1.0" encoding="UTF-8"?>
<svg width="120px" height="120px" viewBox="0 0 120 120" version="1.1" xmlns="http://www.w3.org/2000/svg" xmlns:xlink="http://www.w3.org/1999/xlink">
    <!-- Generator: Sketch 55 (78076) - https://sketchapp.com -->
    <title>7</title>
    <desc>Created with Sketch.</desc>
    <g id="Home" stroke="none" stroke-width="1" fill="none" fill-rule="evenodd">
        <g id="AL_Home-Copy" transform="translate(-343.000000, -3155.000000)" fill="currentColor" fill-rule="nonzero">
            <g id="Features" transform="translate(195.000000, 1665.000000)">
                <g id="Icons">
                    <g id="9" transform="translate(0.000000, 1420.000000)">
                        <g id="icon" transform="translate(148.000000, 70.000000)">
                            <g id="noun_atom_205712" transform="translate(5.000000, 5.000000)">
                                <path d="M101.363736,50.8444444 C94.6549451,45.4666667 84.6527473,40.3333333 73.3087912,36.4222222 C72.089011,36.0555556 70.7472527,36.6666667 70.3813187,37.8888889 C70.0153846,39.1111111 70.6252747,40.4555556 71.8450549,40.8222222 C82.7010989,44.6111111 92.2153846,49.3777778 98.4362637,54.5111111 C104.291209,59.2777778 106.974725,63.8 106.120879,67.2222222 C105.389011,70.1555556 101.973626,72.6 96.4846154,74.0666667 C95.2648352,74.4333333 94.532967,75.6555556 94.8989011,77 C95.1428571,78.1 96.1186813,78.7111111 97.0945055,78.7111111 C97.3384615,78.7111111 97.4604396,78.7111111 97.7043956,78.5888889 C102.827473,77.2444444 109.17033,74.3111111 110.634066,68.3222222 C111.60989,64.5333333 110.756044,58.4222222 101.363736,50.8444444 Z" id="Path"></path>
                                <path d="M5.36703297,41.9222222 C5.85494505,39.9666667 7.44065934,38.2555556 10.2461538,36.9111111 C13.1736264,35.4444444 17.3208791,34.3444444 22.321978,33.7333333 C23.6637363,33.6111111 24.5175824,32.3888889 24.3956044,31.1666667 C24.2736264,29.8222222 23.0538462,28.9666667 21.8340659,29.0888889 C16.2230769,29.7 11.7098901,30.9222222 8.17252747,32.7555556 C4.14725275,34.8333333 1.70769231,37.5222222 0.975824176,40.8222222 C-0.487912088,46.9333333 3.9032967,52.5555556 7.92857143,56.3444444 C8.41648352,56.7111111 8.9043956,56.9555556 9.51428571,56.9555556 C10.1241758,56.9555556 10.7340659,56.7111111 11.221978,56.2222222 C12.0758242,55.2444444 12.0758242,53.7777778 11.1,52.9222222 C8.41648352,50.6 4.39120879,46.0777778 5.36703297,41.9222222 Z" id="Path"></path>
                                <path d="M77.2120879,47.9111111 C76.8461538,46.6888889 75.5043956,45.9555556 74.2846154,46.3222222 C73.0648352,46.6888889 72.332967,48.0333333 72.6989011,49.2555556 C72.9428571,50.1111111 73.1868132,50.9666667 73.5527473,51.9444444 C77.3340659,65.0222222 79.0417582,77.8555556 78.4318681,87.8777778 C77.821978,97.0444444 75.2604396,103.033333 71.2351648,104.255556 C69.2835165,104.866667 66.9659341,104.377778 64.4043956,102.788889 C61.5989011,101.077778 58.5494505,98.0222222 55.5,94.1111111 C49.0351648,85.6777778 43.0582418,73.5777778 38.789011,59.8888889 C37.8131868,56.7111111 36.9593407,53.4111111 36.1054945,50.3555556 C38.0571429,47.7888889 40.2527473,45.2222222 42.4483516,42.7777778 C51.9626374,32.1444444 62.3307692,23.5888889 71.8450549,18.7 C76.2362637,16.3777778 80.2615385,14.9111111 83.5549451,14.5444444 C86.6043956,14.1777778 88.921978,14.6666667 90.3857143,16.0111111 C91.8494505,17.3555556 92.5813187,19.5555556 92.5813187,22.6111111 C92.5813187,25.9111111 91.6054945,30.0666667 89.7758242,34.7111111 C89.2879121,35.9333333 89.8978022,37.2777778 91.1175824,37.7666667 C92.3373626,38.2555556 93.6791209,37.6444444 94.167033,36.4222222 C96.2406593,31.1666667 97.3384615,26.5222222 97.3384615,22.6111111 C97.3384615,18.0888889 96.1186813,14.6666667 93.5571429,12.4666667 C90.9956044,10.1444444 87.4582418,9.28888889 83.067033,9.77777778 C79.1637363,10.2666667 74.6505495,11.8555556 69.7714286,14.4222222 C59.8912088,19.6777778 48.9131868,28.6 39.1549451,39.6 C37.6912088,41.1888889 36.3494505,42.7777778 35.0076923,44.4888889 C33.543956,36.4222222 32.8120879,28.9666667 33.178022,22.3666667 C33.421978,17.3555556 34.2758242,13.2 35.6175824,10.1444444 C36.8373626,7.33333333 38.4230769,5.62222222 40.3747253,5.01111111 C44.4,3.78888889 49.0351648,7.57777778 51.5967033,10.0222222 C52.5725275,10.8777778 54.0362637,10.8777778 54.8901099,9.9 C55.743956,8.92222222 55.743956,7.45555556 54.7681319,6.6 C47.6934066,-0.244444444 42.2043956,-0.488888889 38.910989,0.611111111 C35.6175824,1.58888889 33.056044,4.27777778 31.2263736,8.31111111 C29.6406593,11.8555556 28.6648352,16.6222222 28.4208791,22.1222222 C28.0549451,30.0666667 28.9087912,39.4777778 31.1043956,49.2555556 C25.0054945,57.3222222 20.2483516,65.3888889 17.3208791,72.8444444 C15.2472527,78.1 14.1494505,82.7444444 14.1494505,86.6555556 C14.1494505,91.1777778 15.3692308,94.6 17.9307692,96.8 C19.5164835,98.2666667 22.078022,99.6111111 26.1032967,99.6111111 C28.5428571,99.6111111 31.5923077,99.1222222 35.2516484,97.7777778 C36.4714286,97.2888889 37.0813187,95.9444444 36.7153846,94.7222222 C36.2274725,93.5 34.8857143,92.8888889 33.6659341,93.2555556 C27.932967,95.3333333 23.4197802,95.3333333 21.1021978,93.2555556 C19.6384615,91.9111111 18.9065934,89.7111111 18.9065934,86.6555556 C18.9065934,83.3555556 19.8824176,79.2 21.7120879,74.5555556 C24.1516484,68.4444444 27.810989,61.8444444 32.5681319,55.2444444 C33.056044,57.3222222 33.6659341,59.2777778 34.3978022,61.3555556 C38.789011,75.4111111 45.0098901,88.1222222 51.8406593,97.0444444 C55.256044,101.444444 58.6714286,104.744444 62.0868132,106.822222 C64.7703297,108.411111 67.3318681,109.266667 69.6494505,109.266667 C70.7472527,109.266667 71.7230769,109.144444 72.6989011,108.777778 C75.8703297,107.8 78.4318681,105.355556 80.1395604,101.444444 C81.7252747,98.0222222 82.7010989,93.6222222 83.067033,88.2444444 C83.7989011,77.6111111 81.9692308,64.2888889 78.0659341,50.7222222 C77.7,49.7444444 77.456044,48.7666667 77.2120879,47.9111111 Z" id="Path"></path>
                                <ellipse id="Oval" cx="47.4494505" cy="56.4666667" rx="2.07362637" ry="2.07777778"></ellipse>
                                <ellipse id="Oval" cx="59.7692308" cy="48.0333333" rx="2.31758242" ry="2.32222222"></ellipse>
                                <ellipse id="Oval" cx="59.7692308" cy="62.3333333" rx="3.41538462" ry="3.42222222"></ellipse>
                            </g>
                        </g>
                    </g>
                </g>
            </g>
        </g>
    </g>
</svg>

<svg width="120" height="120" viewBox="0 0 120 120" version="1.1" xmlns="http://www.w3.org/2000/svg"><g id="Home" stroke="none" stroke-width="1" fill="none" fill-rule="evenodd"><g id="AL_Home-Copy" transform="translate(-343 -3155)" fill="currentColor" fill-rule="nonzero"><g id="Features" transform="translate(195 1665)"><g id="Icons"><g id="9" transform="translate(0 1420)"><g id="icon" transform="translate(148 70)"><g id="noun_atom_205712" transform="translate(5 5)"><path d="M101.364 50.844c-6.71-5.377-16.711-10.51-28.055-14.422-1.22-.366-2.562.245-2.928 1.467-.366 1.222.244 2.567 1.464 2.933 10.856 3.79 20.37 8.556 26.591 13.69 5.855 4.766 8.539 9.288 7.685 12.71-.732 2.934-4.147 5.378-9.636 6.845-1.22.366-1.952 1.589-1.586 2.933.244 1.1 1.22 1.711 2.196 1.711.243 0 .365 0 .61-.122 5.122-1.345 11.465-4.278 12.93-10.267.975-3.789.121-9.9-9.271-17.478zM5.367 41.922c.488-1.955 2.074-3.666 4.88-5.01 2.927-1.468 7.074-2.568 12.075-3.179 1.342-.122 2.196-1.344 2.074-2.566-.122-1.345-1.342-2.2-2.562-2.078-5.61.611-10.124 1.833-13.661 3.667-4.026 2.077-6.465 4.766-7.197 8.066-1.464 6.111 2.927 11.734 6.953 15.522.487.367.975.612 1.585.612s1.22-.245 1.708-.734c.854-.978.854-2.444-.122-3.3-2.684-2.322-6.709-6.844-5.733-11z" id="Path"/><path d="M77.212 47.911c-.366-1.222-1.708-1.955-2.927-1.589-1.22.367-1.952 1.711-1.586 2.934.244.855.488 1.71.854 2.688 3.781 13.078 5.489 25.912 4.879 35.934-.61 9.166-3.172 15.155-7.197 16.378-1.951.61-4.27.122-6.83-1.467-2.806-1.711-5.856-4.767-8.905-8.678-6.465-8.433-12.442-20.533-16.711-34.222-.976-3.178-1.83-6.478-2.684-9.533 1.952-2.567 4.148-5.134 6.343-7.578 9.515-10.634 19.883-19.19 29.397-24.078 4.391-2.322 8.417-3.789 11.71-4.156 3.05-.366 5.367.123 6.83 1.467 1.464 1.345 2.196 3.545 2.196 6.6 0 3.3-.976 7.456-2.805 12.1-.488 1.222.122 2.567 1.342 3.056 1.22.489 2.561-.123 3.049-1.345 2.074-5.255 3.171-9.9 3.171-13.81 0-4.523-1.22-7.945-3.78-10.145-2.562-2.323-6.1-3.178-10.491-2.69-3.903.49-8.416 2.079-13.296 4.645C59.891 19.678 48.913 28.6 39.155 39.6a79.647 79.647 0 0 0-4.147 4.889c-1.464-8.067-2.196-15.522-1.83-22.122.244-5.011 1.098-9.167 2.44-12.223 1.22-2.81 2.805-4.522 4.757-5.133 4.025-1.222 8.66 2.567 11.222 5.011.976.856 2.44.856 3.293-.122.854-.978.854-2.444-.122-3.3C47.693-.244 42.204-.489 38.911.611c-3.293.978-5.855 3.667-7.685 7.7-1.585 3.545-2.561 8.311-2.805 13.811-.366 7.945.488 17.356 2.683 27.134-6.099 8.066-10.856 16.133-13.783 23.588-2.074 5.256-3.172 9.9-3.172 13.812 0 4.522 1.22 7.944 3.782 10.144 1.585 1.467 4.147 2.811 8.172 2.811 2.44 0 5.49-.489 9.149-1.833a2.517 2.517 0 0 0 1.463-3.056 2.51 2.51 0 0 0-3.05-1.466c-5.732 2.077-10.245 2.077-12.563 0-1.464-1.345-2.195-3.545-2.195-6.6 0-3.3.975-7.456 2.805-12.1 2.44-6.112 6.099-12.712 10.856-19.312.488 2.078 1.098 4.034 1.83 6.112C38.789 75.41 45.01 88.122 51.84 97.044c3.415 4.4 6.83 7.7 10.246 9.778 2.683 1.59 5.245 2.445 7.562 2.445 1.098 0 2.074-.123 3.05-.49 3.171-.977 5.733-3.421 7.44-7.333 1.586-3.422 2.562-7.822 2.928-13.2.732-10.633-1.098-23.955-5.001-37.522-.366-.978-.61-1.955-.854-2.81z" id="Path"/><ellipse id="Oval" cx="47.449" cy="56.467" rx="2.074" ry="2.078"/><ellipse id="Oval" cx="59.769" cy="48.033" rx="2.318" ry="2.322"/><ellipse id="Oval" cx="59.769" cy="62.333" rx="3.415" ry="3.422"/></g></g></g></g></g></g></g></svg>
